X: 3292
M: 6/8
L: 1/8
K: G
g3  f2g | eed B2G | B2A G2F | G3- G2 :|
|: d |\
g3- g2g | f3- f2f | eee e2e | d3- d2d |\
g3  d2d | f2e d2c | B2A G2F | G3- G2 :|


